src/assets/img/icons/skillset/frontend/angular.svg

<svg fill="none" height="75" viewBox="0 0 70 75" width="70" xmlns="http://www.w3.org/2000/svg"><path d="m35 0 35 12.45-5.3366 46.1625-29.6634 16.3875-29.66344-16.3875-5.33656-46.1625zm0 8.2875-21.8806 48.9375h8.1591l4.3995-10.95h18.5688l4.4032 10.95h8.1554zm6.3903 31.2375h-12.7806l6.3903-15.3375z" fill="#fff"/></svg>

<svg width="70" height="75" viewBox="0 0 70 75" fill="none" xmlns="http://www.w3.org/2000/svg">
<path d="M35 0L70 12.45L64.6634 58.6125L35 75L5.33656 58.6125L0 12.45L35 0ZM35 8.2875L13.1194 57.225H21.2785L25.678 46.275H44.2468L48.65 57.225H56.8054L35 8.2875ZM41.3903 39.525H28.6097L35 24.1875L41.3903 39.525Z" fill="white"/>
</svg>
